assets/aboutus/gaminganywhere.svg

<svg width="410" height="410" viewBox="0 0 410 410" fill="none" xmlns="http://www.w3.org/2000/svg">
<g clip-path="url(#clip0_71_460)">
<path d="M200.005 409.998C310.462 409.998 400.006 320.456 400.006 209.999C400.006 99.5423 310.462 9.99951 200.005 9.99951C89.5477 9.99951 0.00439453 99.5423 0.00439453 209.999C0.00439453 320.456 89.5477 409.998 200.005 409.998Z" fill="url(#paint0_linear_71_460)"/>
<path fill-rule="evenodd" clip-rule="evenodd" d="M75.0093 335.001V127.001C75.0093 123.024 76.5904 119.207 79.4032 116.394C82.2159 113.581 86.0307 112.001 90.0084 112.001C113.562 112.001 158.956 112.001 182.509 112.001C186.489 112.001 190.304 113.581 193.116 116.394C195.929 119.207 197.51 123.024 197.51 127.001C197.51 177.025 197.51 335.001 197.51 335.001H75.0093Z" fill="url(#paint1_linear_71_460)"/>
<path fill-rule="evenodd" clip-rule="evenodd" d="M145.74 162.506C143.736 168.161 137.517 171.125 131.862 169.12C126.207 167.116 123.242 160.897 125.247 155.242C127.251 149.586 133.471 146.622 139.126 148.627C142.247 149.733 145.679 148.098 146.785 144.976C147.892 141.855 146.256 138.423 143.135 137.317C131.237 133.099 118.154 139.335 113.937 151.233C109.719 163.13 115.955 176.213 127.853 180.43C139.751 184.648 152.833 178.412 157.051 166.514C158.157 163.393 156.521 159.961 153.4 158.855C150.279 157.749 146.847 159.384 145.74 162.506Z" fill="url(#paint2_linear_71_460)"/>
<path fill-rule="evenodd" clip-rule="evenodd" d="M200.011 129.999C200.011 117.297 189.713 107 177.01 107C154.353 107 115.667 107 93.0101 107C80.3076 107 70.0098 117.297 70.0098 129.999C70.0098 171.823 70.0098 275.175 70.0098 316.999C70.0098 329.701 80.3076 339.998 93.0101 339.998H177.01C189.713 339.998 200.011 329.701 200.011 316.999V129.999ZM190.01 129.999V316.999C190.01 324.179 184.19 329.999 177.01 329.999H93.0101C85.8304 329.999 80.0104 324.179 80.0104 316.999C80.0104 316.999 80.0104 130.052 80.0104 129.999C80.0104 122.819 85.8304 116.999 93.0101 116.999C115.667 116.999 154.353 116.999 177.01 116.999C184.19 116.999 190.01 122.819 190.01 129.999Z" fill="url(#paint3_linear_71_460)"/>
<path fill-rule="evenodd" clip-rule="evenodd" d="M123.006 317.328H147.006C149.765 317.328 152.006 315.088 152.006 312.328C152.006 309.568 149.765 307.328 147.006 307.328H123.006C120.246 307.328 118.006 309.568 118.006 312.328C118.006 315.088 120.246 317.328 123.006 317.328Z" fill="white"/>
<path fill-rule="evenodd" clip-rule="evenodd" d="M5.00636 339.999H325.007C327.767 339.999 330.007 337.759 330.007 334.999C330.007 332.24 327.767 329.999 325.007 329.999H5.00636C2.24635 329.999 0.00634766 332.24 0.00634766 334.999C0.00634766 337.759 2.24635 339.999 5.00636 339.999Z" fill="url(#paint4_linear_71_460)"/>
<path fill-rule="evenodd" clip-rule="evenodd" d="M54.3324 329.999H5.01132C2.25181 329.999 0.0112438 332.239 0.0112438 334.998C0.0112438 337.758 2.25181 339.999 5.01132 339.999H54.3324C57.092 339.999 59.3325 337.758 59.3325 334.998C59.3325 332.239 57.092 329.999 54.3324 329.999Z" fill="white"/>
<path fill-rule="evenodd" clip-rule="evenodd" d="M253.342 205.499V189.328C253.342 186.567 251.103 184.328 248.342 184.328H215.668C212.907 184.328 210.668 186.567 210.668 189.328V205.499C210.668 208.259 212.908 210.499 215.668 210.499C218.428 210.499 220.668 208.259 220.668 205.499V194.328H243.342V205.499C243.342 208.259 245.582 210.499 248.342 210.499C251.102 210.499 253.342 208.259 253.342 205.499Z" fill="url(#paint5_linear_71_460)"/>
<path fill-rule="evenodd" clip-rule="evenodd" d="M216.303 286.828C208.099 294.089 197.314 298.499 185.507 298.499C159.843 298.499 139.007 277.663 139.007 251.999C139.007 226.335 159.843 205.499 185.507 205.499H278.507C304.171 205.499 325.007 226.335 325.007 251.999C325.007 277.663 304.171 298.499 278.507 298.499C266.7 298.499 255.915 294.089 247.711 286.828C238.082 278.306 225.932 278.306 216.303 286.828Z" fill="url(#paint6_linear_71_460)"/>
<path fill-rule="evenodd" clip-rule="evenodd" d="M219.617 290.572C227.214 283.849 236.8 283.849 244.397 290.572C253.485 298.615 265.43 303.499 278.507 303.499C306.931 303.499 330.007 280.423 330.007 251.999C330.007 223.575 306.931 200.499 278.507 200.499H185.507C157.083 200.499 134.007 223.575 134.007 251.999C134.007 280.423 157.083 303.499 185.507 303.499C198.584 303.499 210.529 298.615 219.617 290.572ZM212.989 283.084C205.668 289.564 196.043 293.499 185.507 293.499C162.603 293.499 144.007 274.903 144.007 251.999C144.007 229.095 162.603 210.499 185.507 210.499H278.507C301.411 210.499 320.007 229.095 320.007 251.999C320.007 274.903 301.411 293.499 278.507 293.499C267.971 293.499 258.346 289.564 251.025 283.084C239.363 272.764 224.651 272.764 212.989 283.084Z" fill="url(#paint7_linear_71_460)"/>
<path fill-rule="evenodd" clip-rule="evenodd" d="M207.308 247.627C208.468 247.626 209.581 248.087 210.4 248.907C211.22 249.727 211.681 250.839 211.68 251.999L211.681 252C211.68 253.159 211.22 254.271 210.399 255.092C209.58 255.912 208.468 256.372 207.308 256.373C201.798 256.373 193.039 256.373 193.039 256.373C193.039 256.373 193.039 265.132 193.039 270.642C193.039 271.801 192.578 272.913 191.758 273.733C190.938 274.553 189.826 275.014 188.667 275.014C188.666 275.015 188.665 275.014 188.665 275.014C187.506 275.015 186.394 274.553 185.574 273.733C184.754 272.913 184.292 271.802 184.293 270.642C184.293 265.132 184.293 256.373 184.293 256.373C184.293 256.373 175.533 256.372 170.024 256.373C168.863 256.373 167.752 255.912 166.932 255.091C166.112 254.271 165.651 253.16 165.651 252C165.651 252 165.651 252 165.651 251.998C165.651 250.839 166.112 249.727 166.932 248.907C167.751 248.087 168.864 247.626 170.023 247.626C175.533 247.626 184.293 247.627 184.293 247.627C184.293 247.627 184.292 238.867 184.292 233.357C184.293 232.197 184.753 231.085 185.573 230.266C186.394 229.445 187.506 228.985 188.665 228.984C188.666 228.985 188.666 228.985 188.666 228.985C189.827 228.985 190.938 229.445 191.758 230.265C192.579 231.085 193.039 232.197 193.039 233.358C193.039 238.866 193.039 247.627 193.039 247.627C193.039 247.627 201.799 247.626 207.308 247.627Z" fill="white"/>
<path d="M278.991 244.341C283.232 244.341 286.669 240.903 286.669 236.663C286.669 232.423 283.232 228.985 278.991 228.985C274.751 228.985 271.313 232.423 271.313 236.663C271.313 240.903 274.751 244.341 278.991 244.341Z" fill="white"/>
<path d="M278.991 275.014C283.232 275.014 286.669 271.576 286.669 267.336C286.669 263.096 283.232 259.658 278.991 259.658C274.751 259.658 271.313 263.096 271.313 267.336C271.313 271.576 274.751 275.014 278.991 275.014Z" fill="white"/>
<path d="M286.646 251.999C286.646 256.239 290.084 259.676 294.324 259.676C298.565 259.676 302.002 256.239 302.002 251.999C302.002 247.758 298.565 244.321 294.324 244.321C290.084 244.321 286.646 247.758 286.646 251.999Z" fill="white"/>
<path d="M255.978 251.999C255.978 256.239 259.416 259.676 263.656 259.676C267.897 259.676 271.334 256.239 271.334 251.999C271.334 247.758 267.897 244.321 263.656 244.321C259.416 244.321 255.978 247.758 255.978 251.999Z" fill="white"/>
<path fill-rule="evenodd" clip-rule="evenodd" d="M340.013 -0.000488281C301.379 -0.000488281 270.013 31.3657 270.013 69.9996C270.013 108.633 301.379 140 340.013 140C378.647 140 410.014 108.633 410.014 69.9996C410.014 31.3657 378.647 -0.000488281 340.013 -0.000488281ZM340.013 9.99976C373.128 9.99976 400.013 36.8848 400.013 69.9996C400.013 103.114 373.128 129.999 340.013 129.999C306.898 129.999 280.013 103.114 280.013 69.9996C280.013 36.8848 306.898 9.99976 340.013 9.99976Z" fill="#151515"/>
<path fill-rule="evenodd" clip-rule="evenodd" d="M237.007 189.328V172.999C237.007 169.021 238.587 165.205 241.4 162.392C244.213 159.579 248.029 157.999 252.007 157.999H282.007C295.814 157.999 307.008 146.806 307.008 132.999C307.008 122.585 307.008 111.999 307.008 111.999C307.008 109.24 304.768 107 302.007 107C299.247 107 297.007 109.24 297.007 111.999V132.999C297.007 141.283 290.291 147.999 282.007 147.999H252.007C245.377 147.999 239.018 150.633 234.329 155.321C229.641 160.01 227.007 166.369 227.007 172.999V189.328C227.007 192.088 229.247 194.328 232.007 194.328C234.767 194.328 237.007 192.088 237.007 189.328Z" fill="url(#paint8_linear_71_460)"/>
<path d="M340.013 130C373.15 130 400.013 103.137 400.013 69.9998C400.013 36.8628 373.15 10 340.013 10C306.876 10 280.013 36.8628 280.013 69.9998C280.013 103.137 306.876 130 340.013 130Z" fill="#151515"/>
<path fill-rule="evenodd" clip-rule="evenodd" d="M340.013 10C373.128 10 400.013 36.8851 400.013 69.9998C400.013 103.115 373.128 130 340.013 130C306.898 130 280.013 103.115 280.013 69.9998C280.013 36.8851 306.898 10 340.013 10ZM340.013 20.0002C367.609 20.0002 390.013 42.4042 390.013 69.9998C390.013 97.5954 367.609 119.999 340.013 119.999C312.417 119.999 290.013 97.5954 290.013 69.9998C290.013 42.4042 312.417 20.0002 340.013 20.0002Z" fill="url(#paint9_linear_71_460)"/>
<path fill-rule="evenodd" clip-rule="evenodd" d="M311.214 73.5356L328.056 90.3774C330.009 92.3294 333.175 92.3294 335.128 90.3774L368.811 56.6939C370.762 54.7419 370.762 51.574 368.811 49.622C366.859 47.6709 363.691 47.6709 361.739 49.622L331.592 79.7705L318.286 66.4638C316.334 64.5127 313.166 64.5127 311.214 66.4638C309.263 68.4158 309.263 71.5837 311.214 73.5356Z" fill="url(#paint10_linear_71_460)"/>
</g>
<defs>
<linearGradient id="paint0_linear_71_460" x1="70.306" y1="57.8003" x2="350.322" y2="341.871" gradientUnits="userSpaceOnUse">
<stop stop-color="#FF0CF5"/>
<stop offset="1" stop-color="#0575E6"/>
</linearGradient>
<linearGradient id="paint1_linear_71_460" x1="-120.23" y1="139.238" x2="-120.23" y2="328.274" gradientUnits="userSpaceOnUse">
<stop stop-color="#36FF78" stop-opacity="0.8"/>
<stop offset="1" stop-color="#0CFFFF" stop-opacity="0.15"/>
</linearGradient>
<linearGradient id="paint2_linear_71_460" x1="128.547" y1="143.502" x2="147.824" y2="170.392" gradientUnits="userSpaceOnUse">
<stop stop-color="#FF0CF5"/>
<stop offset="1" stop-color="#0575E6"/>
</linearGradient>
<linearGradient id="paint3_linear_71_460" x1="131.971" y1="111.999" x2="165.676" y2="334.999" gradientUnits="userSpaceOnUse">
<stop stop-color="#36FF78"/>
<stop offset="1" stop-color="#0CFFFF"/>
</linearGradient>
<linearGradient id="paint4_linear_71_460" x1="0.00634766" y1="334.999" x2="313.007" y2="334.999" gradientUnits="userSpaceOnUse">
<stop stop-color="#3AA0FE"/>
<stop offset="1" stop-color="#59FEF4"/>
</linearGradient>
<linearGradient id="paint5_linear_71_460" x1="215.668" y1="197.414" x2="248.342" y2="197.414" gradientUnits="userSpaceOnUse">
<stop stop-color="#36FF78"/>
<stop offset="1" stop-color="#0CFFFF"/>
</linearGradient>
<linearGradient id="paint6_linear_71_460" x1="184.007" y1="299.328" x2="245.507" y2="205.499" gradientUnits="userSpaceOnUse">
<stop stop-color="#A83AFE"/>
<stop offset="1" stop-color="#6E59FE"/>
</linearGradient>
<linearGradient id="paint7_linear_71_460" x1="356.007" y1="324.999" x2="222.008" y2="177.998" gradientUnits="userSpaceOnUse">
<stop stop-color="#3AA0FE"/>
<stop offset="1" stop-color="#59FEF4"/>
</linearGradient>
<linearGradient id="paint8_linear_71_460" x1="318.863" y1="189.328" x2="318.863" y2="189.328" gradientUnits="userSpaceOnUse">
<stop stop-color="#36FF78"/>
<stop offset="1" stop-color="#0CFFFF"/>
</linearGradient>
<linearGradient id="paint9_linear_71_460" x1="280.013" y1="69.9998" x2="400.013" y2="69.9998" gradientUnits="userSpaceOnUse">
<stop stop-color="#36FF78"/>
<stop offset="1" stop-color="#0CFFFF"/>
</linearGradient>
<linearGradient id="paint10_linear_71_460" x1="310.012" y1="75" x2="365.012" y2="90.0002" gradientUnits="userSpaceOnUse">
<stop stop-color="#36FF78"/>
<stop offset="1" stop-color="#0CFFFF"/>
</linearGradient>
<clipPath id="clip0_71_460">
<rect width="410" height="410" fill="white"/>
</clipPath>
</defs>
</svg>

<svg xmlns="http://www.w3.org/2000/svg" xmlns:xlink="http://www.w3.org/1999/xlink" width="410" height="410" fill="none" xmlns:v="https://vecta.io/nano"><g clip-path="url(#L)"><path d="M200.005 409.998c110.457 0 200.001-89.542 200.001-199.999S310.462 10 200.005 10 .004 99.542.004 209.999s89.543 199.999 200.001 199.999z" fill="url(#A)"/><g fill-rule="evenodd"><path d="M75.009 335.001v-208c0-3.977 1.581-7.794 4.394-10.607s6.627-4.393 10.605-4.393h92.501c3.98 0 7.795 1.58 10.607 4.393s4.394 6.63 4.394 10.607v208H75.009z" fill="url(#B)"/><path d="M145.74 162.506a10.88 10.88 0 0 1-13.878 6.614 10.88 10.88 0 0 1-6.615-13.878 10.88 10.88 0 0 1 13.879-6.615c3.121 1.106 6.553-.529 7.659-3.651s-.529-6.553-3.65-7.659c-11.898-4.218-24.981 2.018-29.198 13.916s2.018 24.98 13.916 29.197 24.98-2.018 29.198-13.916c1.106-3.121-.53-6.553-3.651-7.659s-6.553.529-7.66 3.651z" fill="url(#C)"/><path d="M200.011 129.999c0-12.702-10.298-22.999-23.001-22.999h-84c-12.702 0-23 10.297-23 22.999v187c0 12.702 10.298 22.999 23 22.999h84c12.703 0 23.001-10.297 23.001-22.999v-187zm-10.001 0v187c0 7.18-5.82 13-13 13h-84c-7.18 0-13-5.82-13-13v-187c0-7.18 5.82-13 13-13h84c7.18 0 13 5.82 13 13z" fill="url(#D)"/><path d="M123.006 317.328h24c2.759 0 5-2.24 5-5s-2.241-5-5-5h-24c-2.76 0-5 2.24-5 5s2.24 5 5 5z" fill="#fff"/><path d="M5.006 339.999h320.001c2.76 0 5-2.24 5-5s-2.24-5-5-5H5.006c-2.76 0-5 2.241-5 5s2.24 5 5 5z" fill="url(#E)"/><path d="M54.332 329.999H5.011c-2.76 0-5 2.24-5 4.999s2.241 5.001 5 5.001h49.321c2.76 0 5-2.241 5-5.001s-2.241-4.999-5-4.999z" fill="#fff"/><path d="M253.342 205.499v-16.171a5 5 0 0 0-5-5h-32.674a5 5 0 0 0-5 5v16.171c0 2.76 2.24 5 5 5s5-2.24 5-5v-11.171h22.674v11.171c0 2.76 2.24 5 5 5s5-2.24 5-5z" fill="url(#F)"/><path d="M216.303 286.828c-8.204 7.261-18.989 11.671-30.796 11.671-25.664 0-46.5-20.836-46.5-46.5s20.836-46.5 46.5-46.5h93c25.664 0 46.5 20.836 46.5 46.5s-20.836 46.5-46.5 46.5c-11.807 0-22.592-4.41-30.796-11.671-9.629-8.522-21.779-8.522-31.408 0z" fill="url(#G)"/><path d="M219.617 290.572c7.597-6.723 17.183-6.723 24.78 0a51.3 51.3 0 0 0 34.11 12.927c28.424 0 51.5-23.076 51.5-51.5s-23.076-51.5-51.5-51.5h-93c-28.424 0-51.5 23.076-51.5 51.5s23.076 51.5 51.5 51.5a51.3 51.3 0 0 0 34.11-12.927zm-6.628-7.488a41.33 41.33 0 0 1-27.482 10.415c-22.904 0-41.5-18.596-41.5-41.5s18.596-41.5 41.5-41.5h93c22.904 0 41.5 18.596 41.5 41.5s-18.596 41.5-41.5 41.5a41.33 41.33 0 0 1-27.482-10.415c-11.662-10.32-26.374-10.32-38.036 0z" fill="url(#H)"/><g fill="#fff"><path d="M207.308 247.627c1.16-.001 2.273.46 3.092 1.28s1.281 1.932 1.28 3.092l.001.001c-.001 1.159-.461 2.271-1.282 3.092s-1.931 1.28-3.091 1.281h-14.269v14.269a4.37 4.37 0 0 1-4.372 4.372 4.37 4.37 0 0 1-3.093-1.281c-.82-.82-1.282-1.931-1.281-3.091v-14.269s-8.76-.001-14.269 0a4.37 4.37 0 0 1-4.373-4.373c0-1.161.461-2.273 1.281-3.093a4.37 4.37 0 0 1 3.091-1.281l14.27.001-.001-14.27c.001-1.16.461-2.272 1.281-3.091s1.933-1.281 3.092-1.282 2.273.461 3.093 1.281a4.37 4.37 0 0 1 1.281 3.093v14.269h14.269z"/></g></g><use xlink:href="#M" fill="#fff"/><path d="M278.991 275.014a7.68 7.68 0 0 0 7.678-7.678 7.68 7.68 0 0 0-7.678-7.678 7.68 7.68 0 0 0-7.678 7.678 7.68 7.68 0 0 0 7.678 7.678z" fill="#fff"/><use xlink:href="#N" fill="#fff"/><path d="M255.978 251.999a7.68 7.68 0 0 0 7.678 7.677 7.68 7.68 0 0 0 7.678-7.677 7.68 7.68 0 0 0-7.678-7.678 7.68 7.68 0 0 0-7.678 7.678z" fill="#fff"/><g fill-rule="evenodd"><path d="M340.013 0c-38.634 0-70 31.366-70 70s31.366 70 70 70 70.001-31.367 70.001-70-31.367-70-70.001-70zm0 10c33.115 0 60 26.885 60 60s-26.885 59.999-60 59.999-60-26.885-60-59.999 26.885-60 60-60z" fill="#151515"/><path d="M237.007 189.328v-16.329a15 15 0 0 1 15-15h30c13.807 0 25.001-11.193 25.001-25v-21c0-2.759-2.24-4.999-5.001-4.999s-5 2.24-5 4.999v21c0 8.284-6.716 15-15 15h-30c-6.63 0-12.989 2.634-17.678 7.322s-7.322 11.048-7.322 17.678v16.329c0 2.76 2.24 5 5 5s5-2.24 5-5z" fill="url(#I)"/></g><path d="M340.013 130c33.137 0 60-26.863 60-60s-26.863-60-60-60-60 26.863-60 60 26.863 60 60 60z" fill="#151515"/><g fill-rule="evenodd"><path d="M340.013 10c33.115 0 60 26.885 60 60s-26.885 60-60 60-60-26.885-60-60 26.885-60 60-60zm0 10c27.596 0 50 22.404 50 50s-22.404 49.999-50 49.999-50-22.404-50-49.999 22.404-50 50-50z" fill="url(#J)"/><path d="M311.214 73.536l16.842 16.842c1.953 1.952 5.119 1.952 7.072 0l33.683-33.683c1.951-1.952 1.951-5.12 0-7.072s-5.12-1.951-7.072 0l-30.147 30.149-13.306-13.307c-1.952-1.951-5.12-1.951-7.072 0s-1.951 5.12 0 7.072z" fill="url(#K)"/></g></g><defs><linearGradient id="A" x1="70.306" y1="57.8" x2="350.322" y2="341.871" xlink:href="#O"><stop stop-color="#ff0cf5"/><stop offset="1" stop-color="#0575e6"/></linearGradient><linearGradient id="B" x1="-120.23" y1="139.238" x2="-120.23" y2="328.274" xlink:href="#O"><stop stop-color="#36ff78" stop-opacity=".8"/><stop offset="1" stop-color="#0cffff" stop-opacity=".15"/></linearGradient><linearGradient id="C" x1="128.547" y1="143.502" x2="147.824" y2="170.392" xlink:href="#O"><stop stop-color="#ff0cf5"/><stop offset="1" stop-color="#0575e6"/></linearGradient><linearGradient id="D" x1="131.971" y1="111.999" x2="165.676" y2="334.999" xlink:href="#O"><stop stop-color="#36ff78"/><stop offset="1" stop-color="#0cffff"/></linearGradient><linearGradient id="E" x1=".006" y1="334.999" x2="313.007" y2="334.999" xlink:href="#O"><stop stop-color="#3aa0fe"/><stop offset="1" stop-color="#59fef4"/></linearGradient><linearGradient id="F" x1="215.668" y1="197.414" x2="248.342" y2="197.414" xlink:href="#O"><stop stop-color="#36ff78"/><stop offset="1" stop-color="#0cffff"/></linearGradient><linearGradient id="G" x1="184.007" y1="299.328" x2="245.507" y2="205.499" xlink:href="#O"><stop stop-color="#a83afe"/><stop offset="1" stop-color="#6e59fe"/></linearGradient><linearGradient id="H" x1="356.007" y1="324.999" x2="222.008" y2="177.998" xlink:href="#O"><stop stop-color="#3aa0fe"/><stop offset="1" stop-color="#59fef4"/></linearGradient><linearGradient id="I" x1="318.863" y1="189.328" x2="318.863" y2="189.328" xlink:href="#O"><stop stop-color="#36ff78"/><stop offset="1" stop-color="#0cffff"/></linearGradient><linearGradient id="J" x1="280.013" y1="70" x2="400.013" y2="70" xlink:href="#O"><stop stop-color="#36ff78"/><stop offset="1" stop-color="#0cffff"/></linearGradient><linearGradient id="K" x1="310.012" y1="75" x2="365.012" y2="90" xlink:href="#O"><stop stop-color="#36ff78"/><stop offset="1" stop-color="#0cffff"/></linearGradient><clipPath id="L"><path fill="#fff" d="M0 0h410v410H0z"/></clipPath><path id="M" d="M278.991 244.341a7.68 7.68 0 0 0 7.678-7.678 7.68 7.68 0 0 0-7.678-7.678 7.68 7.68 0 0 0-7.678 7.678 7.68 7.68 0 0 0 7.678 7.678z"/><path id="N" d="M286.646 251.999a7.68 7.68 0 0 0 7.678 7.677 7.68 7.68 0 0 0 7.678-7.677 7.68 7.68 0 0 0-7.678-7.678 7.68 7.68 0 0 0-7.678 7.678z"/><linearGradient id="O" gradientUnits="userSpaceOnUse"/></defs></svg>
